X:611
T:The Silver Faulken.
C:John Malchair's Third Collection of Tunes
F:https://www.vwml.org/record/Malchair/3619/p61
F:www.vwml.org/topics/historic-dance-and-tune-books/Malchair
Z:Eric Conrad Feb 2020
M:6/8 % but barred as in 12/8
L:1/8
K:G ^F % both F's are sharped in MS
"_in modern notation."c4 c2 [|] c3 BA2 | B3 AG2 [|] d6 | ^F3 ED2 [|] F3 GA2 |
A3 GA2 [|] F2 D4 | d3 ^FG2 [|] A4 G2 | G3 AB2 [|] c4 c2 | c2 C2 C2 [|] C4 C2 |]

